SVG_Azure_All/Azure Synapse Analytics Private Link Hub.svg

<?xml version="1.0" encoding="UTF-8" standalone="no"?>
<!-- Generated by Microsoft Visio, SVG Export Azure Synapse Analytics Private Link Hub.svg Page-1 -->

<svg
   xmlns:dc="http://purl.org/dc/elements/1.1/"
   xmlns:cc="http://creativecommons.org/ns#"
   xmlns:rdf="http://www.w3.org/1999/02/22-rdf-syntax-ns#"
   xmlns:svg="http://www.w3.org/2000/svg"
   xmlns="http://www.w3.org/2000/svg"
   xmlns:sodipodi="http://sodipodi.sourceforge.net/DTD/sodipodi-0.dtd"
   xmlns:inkscape="http://www.inkscape.org/namespaces/inkscape"
   width="0.66930187in"
   height="0.78735679in"
   viewBox="0 0 48.189619 56.69"
   xml:space="preserve"
   class="st5"
   version="1.1"
   id="svg60"
   sodipodi:docname="Azure Synapse Analytics Private Link Hub.svg"
   style="font-size:12px;overflow:visible;color-interpolation-filters:sRGB;fill:none;fill-rule:evenodd;stroke-linecap:square;stroke-miterlimit:3"
   inkscape:version="0.92.5 (2060ec1f9f, 2020-04-08)"><metadata
   id="metadata64"><rdf:RDF><cc:Work
       rdf:about=""><dc:format>image/svg+xml</dc:format><dc:type
         rdf:resource="http://purl.org/dc/dcmitype/StillImage" /></cc:Work></rdf:RDF></metadata><sodipodi:namedview
   pagecolor="#ffffff"
   bordercolor="#666666"
   borderopacity="1"
   objecttolerance="10"
   gridtolerance="10"
   guidetolerance="10"
   inkscape:pageopacity="0"
   inkscape:pageshadow="2"
   inkscape:window-width="640"
   inkscape:window-height="480"
   id="namedview62"
   showgrid="false"
   inkscape:zoom="1.4193119"
   inkscape:cx="32.125824"
   inkscape:cy="37.786193"
   inkscape:window-x="0"
   inkscape:window-y="0"
   inkscape:window-maximized="0"
   inkscape:current-layer="svg60" />
	<style
   type="text/css"
   id="style2">
	<![CDATA[
		.st1 {fill:url(#grad0-6);stroke:none;stroke-linecap:butt;stroke-width:34}
		.st2 {fill:url(#grad0-10);stroke:none;stroke-linecap:butt;stroke-width:34}
		.st3 {fill:#0078d4;stroke:none;stroke-linecap:butt;stroke-width:34}
		.st4 {fill:url(#grad0-16);stroke:none;stroke-linecap:butt;stroke-width:34}
		.st5 {fill:none;fill-rule:evenodd;font-size:12px;overflow:visible;stroke-linecap:square;stroke-miterlimit:3}
	]]>
	</style>

	<defs
   id="Patterns_And_Gradients">
		<linearGradient
   id="grad0-6"
   x1="-0.043355251"
   y1="125.77756"
   x2="19.363457"
   y2="125.77756"
   gradientTransform="scale(1.1641759,0.85897674)"
   gradientUnits="userSpaceOnUse">
			<stop
   offset="0.23"
   stop-color="#5ea0ef"
   stop-opacity="1"
   id="stop4" />
			<stop
   offset="0.32"
   stop-color="#5b9fee"
   stop-opacity="1"
   id="stop6" />
			<stop
   offset="0.48"
   stop-color="#509aeb"
   stop-opacity="1"
   id="stop8" />
			<stop
   offset="0.57"
   stop-color="#3f92e6"
   stop-opacity="1"
   id="stop10" />
			<stop
   offset="0.75"
   stop-color="#2688df"
   stop-opacity="1"
   id="stop12" />
			<stop
   offset="0.93"
   stop-color="#127fd9"
   stop-opacity="1"
   id="stop14" />
		</linearGradient>
		<linearGradient
   id="grad0-10"
   x1="-0.045056429"
   y1="125.82695"
   x2="19.355934"
   y2="125.82695"
   gradientTransform="scale(1.1645252,0.85871906)"
   gradientUnits="userSpaceOnUse">
			<stop
   offset="0.2"
   stop-color="#50e6ff"
   stop-opacity="1"
   id="stop17" />
			<stop
   offset="0.65"
   stop-color="#32bedd"
   stop-opacity="1"
   id="stop19" />
			<stop
   offset="1"
   stop-color="#198ab3"
   stop-opacity="1"
   id="stop21" />
		</linearGradient>
		<linearGradient
   id="grad0-16"
   x1="0"
   y1="181.69844"
   x2="28.580072"
   y2="181.69844"
   gradientTransform="scale(1.6861399,0.59307059)"
   gradientUnits="userSpaceOnUse">
			<stop
   offset="0.2"
   stop-color="#005ba1"
   stop-opacity="1"
   id="stop24" />
			<stop
   offset="1"
   stop-color="#0078d4"
   stop-opacity="1"
   id="stop26" />
		</linearGradient>
	</defs>
	<g
   id="g58"
   transform="translate(-34.000457,-34.0043)">
		<title
   id="title30">Page-1</title>
		<g
   id="group7470-1"
   transform="translate(34,-34.0157)">
			<title
   id="title32">Azure Synapse Analytics Private Link Hub</title>
			<g
   id="group7471-2">
				<title
   id="title34">Sheet.7471</title>
				<g
   id="shape7472-3"
   transform="translate(8.75508,-23.4803)">
					<title
   id="title36">Sheet.7472</title>
					<path
   d="m 14.53,108.04 h -6.5 a 8.11539,8.32756 -180 0 0 -1.25,16.55 8.66788,8.89449 0 0 1 0.08,-3.09 5.12583,5.25984 0 0 1 1.17,-10.4 h 6.5 a 5.14118,5.27559 0 0 1 0,10.55 h -1.79 a 3.91344,4.01575 -180 0 0 -0.38,1.67 3.78759,3.88661 -180 0 0 0.26,1.39 h 1.91 a 8.11846,8.33071 -180 0 0 0,-16.66 z"
   class="st1"
   id="path38"
   inkscape:connector-curvature="0"
   style="fill:url(#grad0-6);stroke:none;stroke-width:34;stroke-linecap:butt" />
				</g>
				<g
   id="shape7473-7"
   transform="translate(16.9442,-16.5543)">
					<title
   id="title41">Sheet.7473</title>
					<path
   d="m 15.71,108.17 a 9.337,9.5811 0 0 1 0.1,1.28 8.3548,8.57323 0 0 1 -0.18,1.81 5.1289,5.26299 0 0 1 -1.17,10.4 h -6.5 a 5.14118,5.27559 0 0 1 0,-10.55 h 1.79 a 3.66789,3.76378 -180 0 0 0.12,-3.06 H 7.96 a 8.11846,8.33071 -180 0 0 0,16.66 h 6.5 a 8.11539,8.32756 -180 0 0 1.25,-16.55 z"
   class="st2"
   id="path43"
   inkscape:connector-curvature="0"
   style="fill:url(#grad0-10);stroke:none;stroke-width:34;stroke-linecap:butt" />
				</g>
				<g
   id="shape7474-11">
					<title
   id="title46">Sheet.7474</title>
					<path
   d="M 24.09,68.02 0,82.16 v 28.25 l 24.09,14.3 24.1,-14.14 V 82.22 Z M 43.74,107.61 24.09,119.26 4.45,107.73 V 84.96 L 24.09,73.31 43.74,84.99 Z"
   class="st3"
   id="path48"
   inkscape:connector-curvature="0"
   style="fill:#0078d4;stroke:none;stroke-width:34;stroke-linecap:butt" />
				</g>
				<g
   id="shape7475-13"
   transform="translate(0,-39.6693)">
					<title
   id="title51">Sheet.7475</title>
					<path
   d="M 24.09,107.76 0,121.91 l 4.45,2.8 19.64,-11.65 19.65,11.65 4.45,-2.8 z"
   class="st4"
   id="path53"
   inkscape:connector-curvature="0"
   style="fill:url(#grad0-16);stroke:none;stroke-width:34;stroke-linecap:butt" />
				</g>
			</g>
		</g>
	</g>
</svg>

<?xml version="1.0" encoding="UTF-8" standalone="no"?>
<!DOCTYPE svg PUBLIC "-//W3C//DTD SVG 1.1//EN" "http://www.w3.org/Graphics/SVG/1.1/DTD/svg11.dtd">
<!-- Generated by Microsoft Visio, SVG Export Azure Synapse Analytics Private Link Hub.svg Page-1 -->
<svg xmlns="http://www.w3.org/2000/svg" xmlns:xlink="http://www.w3.org/1999/xlink" xmlns:ev="http://www.w3.org/2001/xml-events"
		width="1.61374in" height="1.73206in" viewBox="0 0 116.189 124.709" xml:space="preserve" color-interpolation-filters="sRGB"
		class="st5">
	<style type="text/css">
	<![CDATA[
		.st1 {fill:url(#grad0-6);stroke:none;stroke-linecap:butt;stroke-width:34}
		.st2 {fill:url(#grad0-10);stroke:none;stroke-linecap:butt;stroke-width:34}
		.st3 {fill:#0078d4;stroke:none;stroke-linecap:butt;stroke-width:34}
		.st4 {fill:url(#grad0-16);stroke:none;stroke-linecap:butt;stroke-width:34}
		.st5 {fill:none;fill-rule:evenodd;font-size:12px;overflow:visible;stroke-linecap:square;stroke-miterlimit:3}
	]]>
	</style>

	<defs id="Patterns_And_Gradients">
		<linearGradient id="grad0-6" x1="0" y1="0" x2="1" y2="0" gradientTransform="rotate(90 0.5 0.5)">
			<stop offset="0.23" stop-color="#5ea0ef" stop-opacity="1"/>
			<stop offset="0.32" stop-color="#5b9fee" stop-opacity="1"/>
			<stop offset="0.48" stop-color="#509aeb" stop-opacity="1"/>
			<stop offset="0.57" stop-color="#3f92e6" stop-opacity="1"/>
			<stop offset="0.75" stop-color="#2688df" stop-opacity="1"/>
			<stop offset="0.93" stop-color="#127fd9" stop-opacity="1"/>
		</linearGradient>
		<linearGradient id="grad0-10" x1="0" y1="0" x2="1" y2="0" gradientTransform="rotate(90 0.5 0.5)">
			<stop offset="0.2" stop-color="#50e6ff" stop-opacity="1"/>
			<stop offset="0.65" stop-color="#32bedd" stop-opacity="1"/>
			<stop offset="1" stop-color="#198ab3" stop-opacity="1"/>
		</linearGradient>
		<linearGradient id="grad0-16" x1="0" y1="0" x2="1" y2="0" gradientTransform="rotate(-90 0.5 0.5)">
			<stop offset="0.2" stop-color="#005ba1" stop-opacity="1"/>
			<stop offset="1" stop-color="#0078d4" stop-opacity="1"/>
		</linearGradient>
	</defs>
	<g>
		<title>Page-1</title>
		<g id="group7297-1" transform="translate(34,-34.0157)">
			<title>Azure Synapse Analytics Private Link Hub</title>
			<g id="group7298-2">
				<title>Sheet.7298</title>
				<g id="shape7299-3" transform="translate(8.75508,-23.4803)">
					<title>Sheet.7299</title>
					<path d="M14.53 108.04 L8.03 108.04 A8.11539 8.32756 -180 0 0 6.78 124.59 A8.66788 8.89449 0 0 1 6.86 121.5 A5.12583
								 5.25984 0 0 1 8.03 111.1 L14.53 111.1 A5.14118 5.27559 0 0 1 14.53 121.65 L12.74 121.65 A3.91344
								 4.01575 -180 0 0 12.36 123.32 A3.78759 3.88661 -180 0 0 12.62 124.71 L14.53 124.71 A8.11846 8.33071
								 -180 0 0 14.53 108.05 L14.53 108.04 Z" class="st1"/>
				</g>
				<g id="shape7300-7" transform="translate(16.9442,-16.5543)">
					<title>Sheet.7300</title>
					<path d="M15.71 108.17 A9.337 9.5811 0 0 1 15.81 109.45 A8.3548 8.57323 0 0 1 15.63 111.26 A5.1289 5.26299 0
								 0 1 14.46 121.66 L7.96 121.66 A5.14118 5.27559 0 0 1 7.96 111.11 L9.75 111.11 A3.66789 3.76378 -180
								 0 0 9.87 108.05 L7.96 108.05 A8.11846 8.33071 -180 0 0 7.96 124.71 L14.46 124.71 A8.11539 8.32756
								 -180 0 0 15.71 108.16 L15.71 108.17 Z" class="st2"/>
				</g>
				<g id="shape7301-11">
					<title>Sheet.7301</title>
					<path d="M24.09 68.02 L0 82.16 L0 110.41 L24.09 124.71 L48.19 110.57 L48.19 82.22 L24.09 68.02 ZM43.74 107.61
								 L24.09 119.26 L4.45 107.73 L4.45 84.96 L24.09 73.31 L43.74 84.99 L43.74 107.61 Z" class="st3"/>
				</g>
				<g id="shape7302-13" transform="translate(0,-39.6693)">
					<title>Sheet.7302</title>
					<path d="M24.09 107.76 L0 121.91 L4.45 124.71 L24.09 113.06 L43.74 124.71 L48.19 121.91 L24.09 107.76 Z"
							class="st4"/>
				</g>
			</g>
		</g>
	</g>
</svg>
